X: 86
T:Knole Park
M:C|
L:1/4
R:Polka
N:Played this with BoB McQuillen at the Northeast Squeeze-In 2001
K:D
A B<A F|A d f d|B e/2f/2 g f|e d c B|!
A B<A F|A d f d|B g/2f/2  e c d:|a f d e/2f/2|!
g e c e/2f/2|g f e d|c B A A|B g A f|!
G e F d|E g f/2/e/2d/2/c/2|d4:|
